X:1
T:Miss Chalmers Jig  [1]
T:Miss Chalmers Jig  [1]
T:Nathaniel Gow
C:Nathaniel Gow
L:1/8
M:6/8
K:D
V:1 treble 
V:1
 B | AFD DED | EFE TE2 B | AFD DED | AFD Bcd | AFD DED | EFE E2 d | Tc3{Bc} dcTB | AFD D2 :| %9
 (f/g/) | afd ded | efe efg | afd ded | f>ga{b} agf | gbg faf | efe efg | afd gec | %17
{c} Td3 D2 f/g/ | afd ded | efe efg | afd ded | Tfga{b} agf | (g/a/b).g (f/g/a).f | efe efg | %24
 afd gec | dBG AFd || %26

